assets/vectors/12.svg

<?xml version="1.0" encoding="UTF-8" standalone="no"?>
<!DOCTYPE svg PUBLIC "-//W3C//DTD SVG 1.1//EN" "http://www.w3.org/Graphics/SVG/1.1/DTD/svg11.dtd">
<svg width="250px" height="250px" version="1.1" xmlns="http://www.w3.org/2000/svg" xmlns:xlink="http://www.w3.org/1999/xlink" xml:space="preserve" xmlns:serif="http://www.serif.com/" style="fill-rule:evenodd;clip-rule:evenodd;stroke-linejoin:round;stroke-miterlimit:1.5;">
    <rect id="Artboard" x="-750" y="-500" width="999.991" height="1000" style="fill:none;"/>
    <clipPath id="_clip1">
        <rect x="-750" y="-500" width="999.991" height="1000"/>
    </clipPath>
    <g clip-path="url(#_clip1)">
        <g id="background">
        </g>
        <path id="OSTROV" d="M-596.31,107.991C-624.685,54.043 -752.239,10.97 -744.677,-231.538C-739.722,-390.443 -638.69,-461.829 -563.043,-460.805C-517.375,-460.186 -461.162,-453.187 -320.04,-393.467C-220.938,-351.53 -174.77,-340.82 -146.093,-351.679C-75.757,-378.314 -67.13,-389.33 -28.422,-409.138C7.384,-427.461 44.527,-456.154 71.957,-467.137C154.286,-500.1 296.284,-464.656 210,-307.045C188.336,-267.473 207.089,-187.326 183.144,-18.643C156.159,171.461 104.682,116.792 95,161.357C88.009,193.537 150.472,305.911 110,381.357C57.077,480.013 -86.582,445.756 -133.043,442.863C-202.963,438.51 -313.903,524.886 -413.043,492.863C-626.293,423.984 -533.641,227.142 -596.31,107.991Z" style="fill:#e2e1bf;"/>
        <g>
            <path d="M188.629,176.281C202.118,190.809 227.183,180.113 232.653,179.826C272.407,177.739 233.98,212.777 214.995,216.331C194.652,220.138 191.87,207.504 171.091,216.331C153.347,223.869 148.677,190.066 160.272,190.385C165.748,190.536 178.768,165.66 188.629,176.281Z" style="fill:#e2e1bf;"/>
            <path d="M227.4,167.294C225.265,160.901 206.791,169.85 204.859,170.295C190.82,173.528 206.729,179.002 213.614,178.124C220.992,177.182 231.44,179.393 227.4,167.294Z" style="fill:#e2e1bf;"/>
            <path d="M194.992,176.299C212.974,176.299 227.4,192.826 227.4,200.214C227.4,207.601 210.031,208.21 192.049,208.21C174.067,208.21 163.485,205.396 163.485,198.008C163.485,190.62 177.01,176.299 194.992,176.299Z" style="fill:#589765;"/>
            <path d="M192.041,176.556C192.415,176.509 179.573,194.438 179.573,200.472C179.573,206.506 186.568,208.215 186.483,208.21C169.02,207.231 163.485,204.442 163.485,198.408C163.485,192.375 171.54,179.161 192.041,176.556Z" style="fill:#3b7847;"/>
        </g>
        <path id="OSTROV1" serif:id="OSTROV" d="M-571.049,66.685C-619.073,40.278 -698.806,11.876 -730,-131.929C-760.788,-273.863 -696.46,-418.925 -571.049,-454.153C-529.659,-465.779 -443.661,-446.664 -310.642,-392.034C-217.231,-353.671 -173.713,-343.874 -146.683,-353.808C-80.387,-378.173 42.79,-451.346 110.084,-457.008C160.37,-461.238 237.811,-436.69 205.084,-338.398C201.933,-328.933 190.446,-296.796 190.084,-281.712C188.105,-199.155 174.692,-32.19 162.587,32.477C140.392,151.057 45.013,102.078 72.916,181.357C95.701,246.096 127.605,340.415 75,391.357C-8.151,471.881 -106.97,412.249 -132.216,410.724C-198.121,406.742 -326.719,489.181 -420.253,460.149C-513.787,431.117 -530.278,283.003 -527.648,233.926C-525.017,184.849 -532.333,87.973 -571.049,66.685Z" style="fill:#589765;"/>
        <path d="M-496.095,-253.472C-526.075,-295.422 -488.196,-452.947 -612.908,-387.839C-690.841,-347.152 -742.123,-212.199 -718.168,-130.766C-649.223,103.603 -520.558,5.153 -517.365,111.528C-511.985,290.746 -515.343,412.637 -397.365,441.087C-347.004,453.231 -255.758,442.058 -219.392,377.748C-200.055,343.552 -121.566,271.669 -47.365,349.46C-24.885,373.028 11.478,382.035 37.055,360C65.287,335.677 59.653,295.206 44.345,275C21.902,245.375 -1.766,210.258 7.635,166.659C28.818,68.426 87.367,104.15 108.066,58.83C152.476,-38.403 -52.047,-76.2 -122.365,-15.341C-214.199,64.139 -410.951,-134.331 -496.095,-253.472Z" style="fill:#8dcf86;"/>
        <g id="pole">
        </g>
        <g id="kere">
        </g>
        <g>
            <g>
                <g id="strom">
                </g>
                <g id="strom1" serif:id="strom">
                </g>
                <g id="strom2" serif:id="strom">
                </g>
                <g id="strom3" serif:id="strom">
                </g>
                <g id="strom4" serif:id="strom">
                </g>
                <g id="strom5" serif:id="strom">
                </g>
                <g id="strom6" serif:id="strom">
                </g>
                <g id="strom7" serif:id="strom">
                </g>
                <g id="strom8" serif:id="strom">
                </g>
                <g id="strom9" serif:id="strom">
                </g>
                <g id="strom10" serif:id="strom">
                </g>
                <g id="strom11" serif:id="strom">
                </g>
                <g id="strom12" serif:id="strom">
                </g>
                <g id="strom13" serif:id="strom">
                </g>
                <g id="strom14" serif:id="strom">
                </g>
            </g>
        </g>
        <g id="male-cesty" serif:id="male cesty">
            <path d="M-63.835,112.502C-106.873,166.551 8.553,182.375 25,209.569" style="fill:none;stroke:#2d5836;stroke-width:4px;"/>
            <path d="M-78.306,341.432C-81.648,296.477 -5.819,241.971 50,259.775" style="fill:none;stroke:#2d5836;stroke-width:4px;stroke-linecap:round;"/>
            <g id="les">
            </g>
            <path d="M-60,-218.123C-39.52,-186.585 -48.852,-158.853 -60,-143.371C-83.098,-111.292 -130.545,-117.281 -145,-125.319C-171.597,-140.109 -231.713,-167.428 -236.176,-115.814C-238.994,-83.228 -162.185,-76.529 -145,-63.178C-113.934,-39.042 -120.083,-6.1 -120,-5C-116.024,47.767 -269.245,93.416 -304.521,-70" style="fill:none;stroke:#2d5836;stroke-width:4px;stroke-linecap:round;"/>
            <path d="M16.883,-6.809C18.727,-3.47 78.395,-29.613 96.356,20C105.294,44.686 82.013,72.319 65,80C54.216,84.869 -9.029,115.417 -2.806,-10" style="fill:none;stroke:#2d5836;stroke-width:4px;stroke-linecap:round;"/>
        </g>
        <g id="hory">
        </g>
        <g id="ker">
        </g>
        <g id="ker1" serif:id="ker">
        </g>
        <g id="ker2" serif:id="ker">
        </g>
        <g id="strom15" serif:id="strom">
        </g>
        <g id="strom16" serif:id="strom">
        </g>
        <g id="ker3" serif:id="ker">
        </g>
        <g id="cesty-velke" serif:id="cesty velke">
            <path d="M-440,403.931C-391.483,466.404 -297.875,452.83 -255,415C-210.321,375.578 -205.249,327.389 -160,320C-125.771,314.41 -100.083,323.836 -77.361,351.143C25.776,475.088 121.472,321.244 59.996,260.213C53.488,253.752 -10.887,177.575 60,114.259C61.597,112.833 78.263,101.125 80,99.713" style="fill:none;stroke:#2d5836;stroke-width:18.67px;stroke-linecap:round;"/>
            <path d="M-290,157.586C-298.648,154.653 -329.983,146.357 -329.983,146.357C-329.983,146.357 -325.565,133.815 -327.976,121.357C-330.787,106.833 -340.46,92.034 -339.983,91.357C-332.086,80.163 -301.319,44.992 -295,36.948C-172.732,-118.705 -37.596,40.308 30.017,91.357C57.806,112.338 120.358,101.557 130,50C147.845,-45.425 19.733,-37.56 10.017,-148.643C1.808,-242.495 59.765,-286.785 120.017,-298.643C246.517,-323.538 200.386,-459.931 92.374,-436.691C36.476,-424.664 -10.448,-356.123 -22.808,-263.386C-33.524,-182.978 -144.706,-237.44 -142.185,-272.312" style="fill:none;stroke:#2d5836;stroke-width:18.67px;stroke-linecap:round;"/>
        </g>
        <g id="strom17" serif:id="strom">
        </g>
        <g id="strom18" serif:id="strom">
        </g>
        <g id="strom19" serif:id="strom">
        </g>
        <g id="strom20" serif:id="strom">
            <g>
                <path d="M107.577,62.802C109.862,62.766 111.741,62.607 113.395,63.687C118.279,66.875 120.99,75.317 120.99,83.967C120.99,93.144 117.536,103.39 111.629,104.873C109.741,105.348 109.483,104.947 107.995,104.947C100.823,104.947 95,95.546 95,83.967C95,72.388 100.407,62.916 107.577,62.802Z" style="fill:#3b7847;"/>
                <ellipse cx="110.771" cy="83.967" rx="10.219" ry="20.98" style="fill:#4db343;"/>
            </g>
            <path d="M107.995,94L107.995,120" style="fill:none;stroke:#4c4c4c;stroke-width:4px;stroke-linecap:round;"/>
        </g>
        <path d="M111.885,114.241L103.117,119.387L106.267,125L115,120.128L111.885,114.241Z" style="fill:#e2e1bf;"/>
        <g id="stromy">
        </g>
        <g id="namesti">
        </g>
        <g id="smrky">
        </g>
        <g id="listnace">
        </g>
        <g id="lanoka">
        </g>
        <g id="strom21" serif:id="strom">
        </g>
        <g id="satelit">
        </g>
        <g id="domky">
            <g id="D1">
            </g>
            <g id="D7">
            </g>
            <g id="D71" serif:id="D7">
            </g>
            <g id="D72" serif:id="D7">
            </g>
            <g id="D73" serif:id="D7">
            </g>
            <g id="D74" serif:id="D7">
            </g>
            <g id="D75" serif:id="D7">
            </g>
            <g id="D76" serif:id="D7">
            </g>
            <g id="D77" serif:id="D7">
            </g>
            <g id="D78" serif:id="D7">
            </g>
            <g id="D79" serif:id="D7">
            </g>
            <g id="D710" serif:id="D7">
            </g>
            <g id="D711" serif:id="D7">
            </g>
            <g id="D712" serif:id="D7">
            </g>
            <g id="D713" serif:id="D7">
            </g>
            <g id="D714" serif:id="D7">
            </g>
            <g id="D715" serif:id="D7">
            </g>
            <g id="D716" serif:id="D7">
            </g>
            <g id="D2">
            </g>
            <g id="D21" serif:id="D2">
            </g>
            <g id="D10">
            </g>
            <g id="D101" serif:id="D10">
            </g>
            <g id="D102" serif:id="D10">
            </g>
            <g id="D01">
            </g>
        </g>
        <g id="strom22" serif:id="strom">
        </g>
        <g id="strom23" serif:id="strom">
        </g>
        <g id="staba">
            <path d="M18.29,-2L18.29,-117" style="fill:none;stroke:#000;stroke-width:4px;stroke-linecap:round;"/>
            <path d="M-48.71,-91.355L-48.71,-2L21.29,-2L21.29,-91.355L-48.71,-91.355ZM-20.71,-27L-41.71,-27L-41.71,-7L-20.71,-7L-20.71,-27ZM14.29,-27L-6.71,-27L-6.71,-7L14.29,-7L14.29,-27ZM-20.71,-57L-41.71,-57L-41.71,-37L-20.71,-37L-20.71,-57ZM14.29,-57L-6.71,-57L-6.71,-37L14.29,-37L14.29,-57ZM-20.71,-86.355L-41.71,-86.355L-41.71,-66.355L-20.71,-66.355L-20.71,-86.355ZM14.29,-86.355L-6.71,-86.355L-6.71,-66.355L14.29,-66.355L14.29,-86.355Z" style="fill:#737373;"/>
            <path d="M-28.71,-89.355L-28.71,-0L21.29,-0L21.29,-89.355L-28.71,-89.355ZM-8.71,-25L-23.71,-25L-23.71,-5L-8.71,-5L-8.71,-25ZM16.29,-25L1.29,-25L1.29,-5L16.29,-5L16.29,-25ZM-8.71,-55L-23.71,-55L-23.71,-35L-8.71,-35L-8.71,-55ZM16.29,-55L1.29,-55L1.29,-35L16.29,-35L16.29,-55ZM-8.71,-84.355L-23.71,-84.355L-23.71,-64.355L-8.71,-64.355L-8.71,-84.355ZM16.29,-84.355L1.29,-84.355L1.29,-64.355L16.29,-64.355L16.29,-84.355Z" style="fill:#d9d9d9;"/>
        </g>
        <g id="chladici-vez" serif:id="chladici vez">
        </g>
        <g id="D22" serif:id="D2">
        </g>
        <g id="D5">
        </g>
        <g id="TOVANA">
        </g>
        <g id="strom24" serif:id="strom">
        </g>
        <g id="strom25" serif:id="strom">
        </g>
        <g id="panelaky">
            <g id="D6">
                <path d="M79.348,60.781L79.348,-55L35.8,-43.379L35.8,60.781L79.348,60.781Z" style="fill:#d9d9d9;"/>
                <path d="M35.8,60.781L35.8,-43.379L16.801,-43.379L16.801,60.781L35.8,60.781Z" style="fill:#8c8c8c;"/>
                <path d="M72.714,28.106L72.714,18.642L62.794,18.642L62.794,28.106L72.714,28.106Z" style="fill:#595959;"/>
                <path d="M59.627,28.106L59.627,18.642L49.706,18.642L49.706,28.106L59.627,28.106Z" style="fill:#595959;"/>
                <path d="M72.798,40.356L72.798,30.892L62.878,30.892L62.878,40.356L72.798,40.356Z" style="fill:#595959;"/>
                <path d="M59.71,40.356L59.71,30.892L49.79,30.892L49.79,40.356L59.71,40.356Z" style="fill:#595959;"/>
                <path d="M72.798,52.606L72.798,43.142L62.878,43.142L62.878,52.606L72.798,52.606Z" style="fill:#595959;"/>
                <path d="M59.71,52.606L59.71,43.142L49.79,43.142L49.79,52.606L59.71,52.606Z" style="fill:#595959;"/>
                <path d="M72.497,3.606L72.497,-5.859L62.577,-5.859L62.577,3.606L72.497,3.606Z" style="fill:#595959;"/>
                <path d="M59.409,3.606L59.409,-5.859L49.489,-5.859L49.489,3.606L59.409,3.606Z" style="fill:#595959;"/>
                <path d="M72.497,15.856L72.497,6.391L62.577,6.391L62.577,15.856L72.497,15.856Z" style="fill:#595959;"/>
                <path d="M59.409,15.856L59.409,6.391L49.489,6.391L49.489,15.856L59.409,15.856Z" style="fill:#595959;"/>
            </g>
            <g id="D3">
                <path d="M21.25,144.57L21.25,40L-22.47,40L-22.47,144.57L21.25,144.57Z" style="fill:#d9d9d9;"/>
                <path d="M14.159,57.429L14.159,48.716L0.867,48.716L0.867,57.429L14.159,57.429Z" style="fill:#595959;"/>
                <path d="M14.562,113.811L14.562,105.098L1.27,105.098L1.27,113.811L14.562,113.811Z" style="fill:#595959;"/>
                <path d="M14.271,68.705L14.271,59.993L0.979,59.993L0.979,68.705L14.271,68.705Z" style="fill:#595959;"/>
                <path d="M14.674,125.087L14.674,116.375L1.382,116.375L1.382,125.087L14.674,125.087Z" style="fill:#595959;"/>
                <path d="M14.271,79.981L14.271,71.269L0.979,71.269L0.979,79.981L14.271,79.981Z" style="fill:#595959;"/>
                <path d="M14.674,136.363L14.674,127.651L1.382,127.651L1.382,136.363L14.674,136.363Z" style="fill:#595959;"/>
                <path d="M14.271,91.258L14.271,82.546L0.979,82.546L0.979,91.258L14.271,91.258Z" style="fill:#595959;"/>
                <path d="M14.271,102.534L14.271,93.822L0.979,93.822L0.979,102.534L14.271,102.534Z" style="fill:#595959;"/>
            </g>
            <g id="D9">
            </g>
            <g id="D91" serif:id="D9">
            </g>
            <g id="D92" serif:id="D9">
            </g>
            <g id="D93" serif:id="D9">
            </g>
            <g id="D717" serif:id="D7">
            </g>
        </g>
        <g id="strom26" serif:id="strom">
            <g>
                <path d="M69.363,50.023C71.064,49.995 72.463,49.871 73.694,50.714C77.33,53.204 79.348,59.797 79.348,66.553C79.348,73.721 76.777,81.723 72.38,82.882C70.974,83.252 70.782,82.939 69.674,82.939C64.335,82.939 60,75.597 60,66.553C60,57.51 64.025,50.112 69.363,50.023Z" style="fill:#3b7847;"/>
                <ellipse cx="71.74" cy="66.553" rx="7.608" ry="16.386" style="fill:#4db343;"/>
            </g>
            <path d="M69.674,74.389L69.674,94.696" style="fill:none;stroke:#4c4c4c;stroke-width:4px;stroke-linecap:round;"/>
        </g>
        <g id="strom27" serif:id="strom">
        </g>
        <path d="M73.124,91.527L66.158,92.197L66.555,96.927L73.52,96.256L73.124,91.527Z" style="fill:#2d5836;"/>
        <g id="letiste">
        </g>
        <g id="strom28" serif:id="strom">
        </g>
        <g id="strom29" serif:id="strom">
        </g>
        <g id="tunel-s-vlakem" serif:id="tunel s vlakem">
            <path d="M-30,196.985L-60,197.252L-13.064,242.987C-9.843,245.492 -5.845,249.29 -3.617,246.424L10,240C12.228,237.135 6.304,224.727 3.083,222.222L-30,196.985Z" style="fill:#589765;"/>
            <path d="M-60,197.252L-60,210C-61.228,211.579 -49.58,219.595 -46.715,221.822L-18.687,238.618C-15.821,240.846 -7.155,247.772 -5.927,246.193L-4.723,243.191C-3.496,241.612 -6.923,229.402 -9.788,227.174L-60,197.252Z" style="fill:#3b7847;"/>
        </g>
        <g id="strom30" serif:id="strom">
            <g>
                <path d="M16.706,210.024C18.55,209.994 20.068,209.866 21.404,210.738C25.348,213.313 27.538,220.131 27.538,227.117C27.538,234.529 24.748,242.803 19.978,244.001C18.453,244.384 18.244,244.06 17.043,244.06C11.251,244.06 6.548,236.468 6.548,227.117C6.548,217.766 10.915,210.116 16.706,210.024Z" style="fill:#3b7847;"/>
                <ellipse cx="19.285" cy="227.117" rx="8.253" ry="16.944" style="fill:#4db343;"/>
            </g>
            <path d="M17.043,235.22L17.043,256.218" style="fill:none;stroke:#4c4c4c;stroke-width:4px;stroke-linecap:round;"/>
        </g>
        <g id="hrad">
        </g>
        <g id="auta">
            <path d="M38.413,92.746C44.456,95.353 49.326,97.553 47.381,102.061C45.152,107.226 40.494,104.535 34.452,101.927C28.409,99.32 23.39,97.725 25.484,92.612C27.606,87.178 32.371,90.138 38.413,92.746Z" style="fill:#f7db6b;"/>
        </g>
        <g id="majak">
        </g>
        <g id="vetrna-elektr" serif:id="vetrna elektr">
        </g>
        <g id="osrov-pokladu" serif:id="osrov pokladu">
        </g>
    </g>
</svg>

<svg xmlns="http://www.w3.org/2000/svg" xml:space="preserve" fill-rule="evenodd" stroke-linejoin="round" stroke-miterlimit="1.5" clip-rule="evenodd" viewBox="0 0 250 250"><path fill="none" d="M-750-500H250V500H-750z"/><clipPath id="a"><path d="M-750-500H250V500H-750z"/></clipPath><g clip-path="url(#a)"><path fill="#e2e1bf" d="M-596.3 108c-28.4-54-156-97-148.4-339.5 5-159 106-230.3 181.7-229.3 45.6.6 101.8 7.6 243 67.3 99 42 145.2 52.7 174 41.8 70.2-26.6 78.9-37.6 117.6-57.4 35.8-18.4 73-47 100.4-58 82.3-33 224.3 2.4 138 160-21.7 39.6-3 119.8-26.9 288.5-27 190-78.4 135.4-88.1 180-7 32.1 55.5 144.5 15 220-53 98.6-196.6 64.4-243 61.5-70-4.4-180.9 82-280 50-213.3-69-120.6-265.8-183.3-385Z"/><path fill="#e2e1bf" d="M188.6 176.3c13.5 14.5 38.6 3.8 44 3.5 39.8-2 1.4 33-17.6 36.5-20.3 3.8-23.1-8.8-44 0-17.7 7.6-22.3-26.2-10.7-26 5.4.2 18.5-24.6 28.3-14Z"/><path fill="#e2e1bf" d="M227.4 167.3c-2.1-6.4-20.6 2.5-22.5 3-14 3.2 1.8 8.7 8.7 7.8 7.4-1 17.8 1.3 13.8-10.8Z"/><path fill="#589765" d="M195 176.3c18 0 32.4 16.5 32.4 24 0 7.3-17.4 8-35.4 8s-28.5-2.9-28.5-10.3 13.5-21.7 31.5-21.7Z"/><path fill="#3b7847" d="M192 176.6c.4 0-12.4 17.8-12.4 23.9 0 6 7 7.7 6.9 7.7-17.5-1-23-3.8-23-9.8 0-6 8-19.2 28.5-21.8Z"/><path fill="#589765" d="M-571 66.7C-619 40.3-698.8 11.9-730-132c-30.8-142 33.5-287 159-322.3 41.3-11.6 127.3 7.5 260.4 62.2 93.4 38.3 136.9 48.1 164 38.2C-80.5-378.2 42.7-451.3 110-457c50.3-4.2 127.7 20.3 95 118.6-3.2 9.5-14.7 41.6-15 56.7-2 82.5-15.4 249.5-27.5 314.2C140.4 151 45 102 72.9 181.4c22.8 64.7 54.7 159 2.1 210-83.2 80.5-182 20.8-207.2 19.3-66-4-194.5 78.5-288 49.4-93.6-29-110-177.1-107.4-226.2 2.6-49-4.7-146-43.4-167.2Z"/><path fill="#8dcf86" d="M-496.1-253.5c-30-42 7.9-199.4-116.8-134.3-78 40.6-129.2 175.6-105.3 257 69 234.4 197.6 136 200.8 242.3 5.4 179.2 2 301.1 120 329.6 50.4 12.1 141.6 1 178-63.4 19.3-34.1 97.8-106 172-28.2C-24.9 373 11.5 382 37.1 360c28.2-24.3 22.6-64.8 7.2-85-22.4-29.6-46-64.7-36.7-108.3 21.2-98.3 79.8-62.5 100.5-107.9C152.5-38.4-52-76.2-122.4-15.3-214.2 64-411-134.3-496-253.5Z"/><path fill="none" stroke="#2d5836" stroke-width="4" d="M-63.8 112.5c-43 54 72.4 69.9 88.8 97"/><path fill="none" stroke="#2d5836" stroke-linecap="round" stroke-width="4" d="M-78.3 341.4c-3.3-45 72.5-99.4 128.3-81.6M-60-218.1a63.6 63.6 0 0 1 0 74.7c-23.1 32.1-70.5 26.1-85 18-26.6-14.7-86.7-42-91.2 9.6-2.8 32.6 74 39.3 91.2 52.6C-114-39-120-6-120-5c4 52.8-149.2 98.4-184.5-65M16.9-6.8C18.7-3.5 78.4-29.6 96.4 20 105.3 44.7 82 72.3 65 80 54.2 84.9-9 115.4-2.8-10"/><g fill="none" stroke="#2d5836" stroke-linecap="round" stroke-width="18.7"><path d="M-440 404c48.5 62.4 142.1 48.8 185 11 44.7-39.4 49.8-87.6 95-95 34.2-5.6 60 3.8 82.6 31.1 103.2 124 198.9-29.9 137.4-90.9-6.5-6.4-70.9-82.6 0-146 1.6-1.4 18.3-13 20-14.5"/><path d="M-290 157.6c-8.6-3-40-11.2-40-11.2s4.4-12.6 2-25c-2.8-14.6-12.5-29.4-12-30 8-11.2 38.7-46.4 45-54.5 122.3-155.6 257.4 3.4 325 54.5 27.8 21 90.4 10.2 100-41.4C147.8-45.4 19.7-37.6 10-148.6c-8.2-93.9 49.8-138.2 110-150 126.5-25 80.4-161.3-27.6-138-56 12-102.8 80.5-115.2 173.2-10.7 80.4-122 26-119.4-9"/></g><path fill="#3b7847" d="M107.6 62.8c2.3 0 4.1-.2 5.8.9 4.9 3.2 7.6 11.6 7.6 20.3 0 9.1-3.5 19.4-9.4 20.9-1.9.4-2.1 0-3.6 0-7.2 0-13-9.4-13-21 0-11.5 5.4-21 12.6-21.1Z"/><ellipse cx="110.8" cy="84" fill="#4db343" rx="10.2" ry="21"/><path fill="none" stroke="#4c4c4c" stroke-linecap="round" stroke-width="4" d="M108 94v26"/><path fill="#e2e1bf" d="m111.9 114.2-8.8 5.2 3.2 5.6 8.7-4.9-3.1-5.9Z"/><path fill="none" stroke="#000" stroke-linecap="round" stroke-width="4" d="M18.3-2v-115"/><path fill="#737373" d="M-48.7-91.4V-2h70v-89.4h-70Zm28 64.4h-21v20h21v-20Zm35 0h-21v20h21v-20Zm-35-30h-21v20h21v-20Zm35 0h-21v20h21v-20Zm-35-29.4h-21v20h21v-20Zm35 0h-21v20h21v-20Z"/><path fill="#d9d9d9" d="M-28.7-89.4V0h50v-89.4h-50Zm20 64.4h-15v20h15v-20Zm25 0h-15v20h15v-20Zm-25-30h-15v20h15v-20Zm25 0h-15v20h15v-20Zm-25-29.4h-15v20h15v-20Zm25 0h-15v20h15v-20Zm63 145.2V-55L35.8-43.4V60.8h43.5Z"/><path fill="#8c8c8c" d="M35.8 60.8V-43.4h-19V60.8h19Z"/><path fill="#595959" d="M72.7 28.1v-9.5h-10v9.5h10Zm-13.1 0v-9.5h-9.9v9.5h10Zm13.2 12.3v-9.5h-10v9.5h10Zm-13.1 0v-9.5h-10v9.5h10Zm13.1 12.2v-9.5h-10v9.5h10Zm-13.1 0v-9.5h-10v9.5h10Zm12.8-49v-9.5h-10v9.5h10Zm-13.1 0v-9.5h-10v9.5h10Zm13.1 12.3V6.4h-10v9.5h10Zm-13.1 0V6.4h-10v9.5h10Z"/><path fill="#d9d9d9" d="M21.3 144.6V40h-43.8v104.6h43.8Z"/><path fill="#595959" d="M14.2 57.4v-8.7H.9v8.7h13.3Zm.4 56.4v-8.7H1.3v8.7h13.3Zm-.3-45.1V60H1v8.7h13.3Zm.4 56.3v-8.6H1.4v8.7h13.3Zm-.4-45v-8.7H1V80h13.3Zm.4 56.4v-8.7H1.4v8.7h13.3Zm-.4-45.1v-8.8H1v8.8h13.3Zm0 11.2v-8.7H1v8.7h13.3Z"/><path fill="#3b7847" d="M69.4 50c1.7 0 3-.1 4.3.7 3.6 2.5 5.6 9.1 5.6 15.9 0 7.1-2.5 15.1-7 16.3-1.3.4-1.5 0-2.6 0-5.4 0-9.7-7.3-9.7-16.3S64 50 69.4 50Z"/><ellipse cx="71.7" cy="66.6" fill="#4db343" rx="7.6" ry="16.4"/><path fill="none" stroke="#4c4c4c" stroke-linecap="round" stroke-width="4" d="M69.7 74.4v20.3"/><path fill="#2d5836" d="m73.1 91.5-7 .7.5 4.7 7-.6-.5-4.8Z"/><path fill="#589765" d="m-30 197-30 .3 47 45.7c3.2 2.5 7.2 6.3 9.4 3.4L10 240c2.2-2.9-3.7-15.3-7-17.8L-30 197Z"/><path fill="#3b7847" d="M-60 197.3V210c-1.2 1.6 10.4 9.6 13.3 11.8l28 16.8c2.9 2.2 11.5 9.2 12.8 7.6l1.2-3c1.2-1.6-2.2-13.8-5-16l-50.3-30ZM16.7 210c1.9 0 3.4-.1 4.7.7 4 2.6 6.1 9.4 6.1 16.4 0 7.4-2.8 15.7-7.5 16.9-1.5.4-1.8 0-3 0-5.7 0-10.5-7.5-10.5-16.9 0-9.3 4.4-17 10.2-17Z"/><ellipse cx="19.3" cy="227.1" fill="#4db343" rx="8.3" ry="16.9"/><path fill="none" stroke="#4c4c4c" stroke-linecap="round" stroke-width="4" d="M17 235.2v21"/><path fill="#f7db6b" d="M38.4 92.7c6 2.7 11 4.9 9 9.4-2.2 5.1-7 2.4-13-.2s-11-4.2-9-9.3c2.2-5.4 7-2.5 13 .1Z"/></g></svg>
